!!!COM: Anonymous
!!!OTL@@LAT: Hodie Christus natus est
!!!TXO: Latin
!!!ODT: 
!!!GTL: Hymnbook L 1642(a)
!!!ARL: Biblioteka Diecezjalna w Sandomierzu 
!!!voices:	4
**kern	**text	**kern	**text	**kern	**text	**kern	**text
*staff4	*staff4	*staff3	*staff3	*staff2	*staff2	*staff1	*staff1
*I"Basso	*	*I"Canto III	*	*I"Canto II	*	*I"Canto I	*
=1-	=1-	=1-	=1-	=1-	=1-	=1-	=1-
*clefF4	*	*clefG2	*	*clefG2	*	*clefG2	*
*k[]	*	*k[]	*	*k[]	*	*k[]	*
*met(c|)	*	*met(c|)	*	*met(c|)	*	*met(c|)	*
*M2/2	*	*M2/2	*	*M2/2	*	*M2/2	*
!	!	!	!	!	!	!LO:TX:Y=0:t=Intonatio solo	!
1r	.	1r	.	1r	.	[1dd	Ho-
=2	=2	=2	=2	=2	=2	=2	=2
1r	.	1r	.	1r	.	2dd\]	.
.	.	.	.	.	.	2dd\	-di-
=3	=3	=3	=3	=3	=3	=3	=3
1r	.	1r	.	1r	.	1ee	-e
=4	=4	=4	=4	=4	=4	=4	=4
1r	.	1r	.	1r	.	[1cc	Chri-
=5	=5	=5	=5	=5	=5	=5	=5
1r	.	1r	.	1r	.	2cc\]	.
.	.	.	.	.	.	2b\	-stus
=6	=6	=6	=6	=6	=6	=6	=6
1r	.	1r	.	1r	.	2a/	na-
.	.	.	.	.	.	2a/	-tus
=7	=7	=7	=7	=7	=7	=7	=7
1r	.	1r	.	1r	.	1g	est
=8||	=8||	=8||	=8||	=8||	=8||	=8||	=8||
*M3/1	*	*M3/1	*	*M3/1	*	*M3/1	*
!	!	!	!	!	!	!LO:TX:Y=0:t=Wszyscy	!
1G	Al-	1b	Al-	1dd	Al-	1gg	Al-
1F#i	-le-	1a	-le-	1dd	-le-	1aa	-le-
1G	-lu-	1b	-lu-	1dd	-lu-	1gg	-lu-
=9	=9	=9	=9	=9	=9	=9	=9
0C	-ia	0cc	-ia	0ee	-ia	0gg	-ia
1C	al-	1cc	al-	1ee	al-	1ee	al-
=10	=10	=10	=10	=10	=10	=10	=10
0G	-le-	0b	-le-	0dd	-le-	0gg	-le-
1A	-lu-	1a	-lu-	1cc	-lu-	1ee	-lu-
=11	=11	=11	=11	=11	=11	=11	=11
0.E	-ia	0.g	-ia	0.b	-ia	0.ee	-ia
=12	=12	=12	=12	=12	=12	=12	=12
1C	al-	1cc	al-	1ee	al-	1gg	al-
1C	-le-	1cc	-le-	1ee	-le-	1gg	-le-
1C	-lu-	1cc	-lu-	1ee	-lu-	1gg	-lu-
=13	=13	=13	=13	=13	=13	=13	=13
0F	-ia	0a	-ia	0cc	-ia	0ff	-ia
1G	al-	1g	al-	1b	al-	1dd	al-
=14	=14	=14	=14	=14	=14	=14	=14
0D	-le-	0f#	-le-	0a	-le-	0dd	-le-
1D	-lu-	1f#	-lu-	1a	-lu-	1dd	-lu-
=15	=15	=15	=15	=15	=15	=15	=15
0.GG	-ia	0.g	-ia	0.g	-ia	0.dd	-ia
=16||	=16||	=16||	=16||	=16||	=16||	=16||	=16||
*met(c|)	*	*met(c|)	*	*met(c|)	*	*met(c|)	*
*M2/2	*	*M2/2	*	*M2/2	*	*M2/2	*
!	!	!	!	!	!	!LO:TX:Y=0:t=Solo	!
1r	.	1r	.	1r	.	[1dd	Ho-
=17	=17	=17	=17	=17	=17	=17	=17
1r	.	1r	.	1r	.	2dd\]	.
.	.	.	.	.	.	2dd\	-di-
=18	=18	=18	=18	=18	=18	=18	=18
1r	.	1r	.	1r	.	2ee\	-e
.	.	.	.	.	.	2ee\	Sal-
=19	=19	=19	=19	=19	=19	=19	=19
1r	.	1r	.	1r	.	1cc	-va-
=20	=20	=20	=20	=20	=20	=20	=20
1r	.	1r	.	1r	.	2cc\	-tor
.	.	.	.	.	.	2b\	ap-
=21	=21	=21	=21	=21	=21	=21	=21
1r	.	1r	.	1r	.	2.a/	-pa-
.	.	.	.	.	.	4a/	-ru-
=22	=22	=22	=22	=22	=22	=22	=22
1r	.	1r	.	1r	.	1g	-it
=23||	=23||	=23||	=23||	=23||	=23||	=23||	=23||
*M3/1	*	*M3/1	*	*M3/1	*	*M3/1	*
!	!	!	!	!	!	!LO:TX:Y=0:t=Wszyscy	!
1G	Al-	1b	Al-	1dd	Al-	1gg	Al-
1F#i	-le-	1a	-le-	1dd	-le-	1aa	-le-
1G	-lu-	1b	-lu-	1dd	-lu-	1gg	-lu-
=24	=24	=24	=24	=24	=24	=24	=24
0C	-ia	0cc	-ia	0ee	-ia	0gg	-ia
1C	al-	1cc	al-	1ee	al-	1ee	al-
=25	=25	=25	=25	=25	=25	=25	=25
0G	-le-	0b	-le-	0dd	-le-	0gg	-le-
1A	-lu-	1a	-lu-	1cc	-lu-	1ee	-lu-
=26	=26	=26	=26	=26	=26	=26	=26
0.E	-ia	0.g	-ia	0.b	-ia	0.ee	-ia
=27	=27	=27	=27	=27	=27	=27	=27
1C	al-	1cc	al-	1ee	al-	1gg	al-
1C	-le-	1cc	-le-	1ee	-le-	1gg	-le-
1C	-lu-	1cc	-lu-	1ee	-lu-	1gg	-lu-
=28	=28	=28	=28	=28	=28	=28	=28
0F	-ia	0a	-ia	0cc	-ia	0ff	-ia
1G	al-	1g	al-	1b	al-	1dd	al-
=29	=29	=29	=29	=29	=29	=29	=29
0D	-le-	0f#	-le-	0a	-le-	0dd	-le-
1D	-lu-	1f#	-lu-	1a	-lu-	1dd	-lu-
=30	=30	=30	=30	=30	=30	=30	=30
0.GG	-ia	0.g	-ia	0.g	-ia	0.dd	-ia
=31||	=31||	=31||	=31||	=31||	=31||	=31||	=31||
*met(c|)	*	*met(c|)	*	*met(c|)	*	*met(c|)	*
*M2/2	*	*M2/2	*	*M2/2	*	*M2/2	*
!	!	!	!	!	!	!LO:TX:Y=0:t=Solo	!
1r	.	1r	.	1r	.	[1dd	Ho-
=32	=32	=32	=32	=32	=32	=32	=32
1r	.	1r	.	1r	.	2dd\]	.
.	.	.	.	.	.	2dd\	-di-
=33	=33	=33	=33	=33	=33	=33	=33
1r	.	1r	.	1r	.	1ee	-e
=34	=34	=34	=34	=34	=34	=34	=34
1r	.	1r	.	1r	.	[1ff	ca-
=35	=35	=35	=35	=35	=35	=35	=35
1r	.	1r	.	1r	.	2ff\]	.
.	.	.	.	.	.	2ee\	-nunt
=36	=36	=36	=36	=36	=36	=36	=36
1r	.	1r	.	1r	.	2.dd\	an-
.	.	.	.	.	.	4dd\	-ge-
=37	=37	=37	=37	=37	=37	=37	=37
1r	.	1r	.	1r	.	1cc	-li
=38||	=38||	=38||	=38||	=38||	=38||	=38||	=38||
*M3/1	*	*M3/1	*	*M3/1	*	*M3/1	*
!	!	!	!	!	!	!LO:TX:Y=0:t=Wszyscy	!
1G	Al-	1b	Al-	1dd	Al-	1gg	Al-
1F#i	-le-	1a	-le-	1dd	-le-	1aa	-le-
1G	-lu-	1b	-lu-	1dd	-lu-	1gg	-lu-
=39	=39	=39	=39	=39	=39	=39	=39
0C	-ia	0cc	-ia	0ee	-ia	0gg	-ia
1C	al-	1cc	al-	1ee	al-	1ee	al-
=40	=40	=40	=40	=40	=40	=40	=40
0G	-le-	0b	-le-	0dd	-le-	0gg	-le-
1A	-lu-	1a	-lu-	1cc	-lu-	1ee	-lu-
=41	=41	=41	=41	=41	=41	=41	=41
0.E	-ia	0.g	-ia	0.b	-ia	0.ee	-ia
=42	=42	=42	=42	=42	=42	=42	=42
1C	al-	1cc	al-	1ee	al-	1gg	al-
1C	-le-	1cc	-le-	1ee	-le-	1gg	-le-
1C	-lu-	1cc	-lu-	1ee	-lu-	1gg	-lu-
=43	=43	=43	=43	=43	=43	=43	=43
0F	-ia	0a	-ia	0cc	-ia	0ff	-ia
1G	al-	1g	al-	1b	al-	1dd	al-
=44	=44	=44	=44	=44	=44	=44	=44
0D	-le-	0f#	-le-	0a	-le-	0dd	-le-
1D	-lu-	1f#	-lu-	1a	-lu-	1dd	-lu-
=45	=45	=45	=45	=45	=45	=45	=45
0.GG	-ia	0.g	-ia	0.g	-ia	0.dd	-ia
=46||	=46||	=46||	=46||	=46||	=46||	=46||	=46||
*met(c|)	*	*met(c|)	*	*met(c|)	*	*met(c|)	*
*M2/2	*	*M2/2	*	*M2/2	*	*M2/2	*
!	!	!	!	!	!	!LO:TX:Y=0:t=Solo	!
1r	.	1r	.	1r	.	1dd	Glo-
=47	=47	=47	=47	=47	=47	=47	=47
1r	.	1r	.	1r	.	2dd\	-ri-
.	.	.	.	.	.	2dd\	-a
=48	=48	=48	=48	=48	=48	=48	=48
1r	.	1r	.	1r	.	1ee	Pa-
=49	=49	=49	=49	=49	=49	=49	=49
1r	.	1r	.	1r	.	2ee\	-tri
.	.	.	.	.	.	2cc\	et
=50	=50	=50	=50	=50	=50	=50	=50
1r	.	1r	.	1r	.	2.dd\	Fi-
.	.	.	.	.	.	4dd\	-li-
=51	=51	=51	=51	=51	=51	=51	=51
1r	.	1r	.	1r	.	1ee	-o
=52	=52	=52	=52	=52	=52	=52	=52
1r	.	1r	.	1r	.	1dd	et
=53	=53	=53	=53	=53	=53	=53	=53
1r	.	1r	.	1r	.	2.ff\	Spi-
.	.	.	.	.	.	4ff\	-ri-
=54	=54	=54	=54	=54	=54	=54	=54
1r	.	1r	.	1r	.	2ee\	-tu-
.	.	.	.	.	.	2ee\	-i
=55	=55	=55	=55	=55	=55	=55	=55
1r	.	1r	.	1r	.	1dd	San-
=56	=56	=56	=56	=56	=56	=56	=56
1r	.	1r	.	1r	.	1cc	-cto
=57||	=57||	=57||	=57||	=57||	=57||	=57||	=57||
*M3/1	*	*M3/1	*	*M3/1	*	*M3/1	*
!	!	!	!	!	!	!LO:TX:Y=0:t=Wszyscy	!
1G	Al-	1b	Al-	1dd	Al-	1gg	Al-
1F#i	-le-	1a	-le-	1dd	-le-	1aa	-le-
1G	-lu-	1b	-lu-	1dd	-lu-	1gg	-lu-
=58	=58	=58	=58	=58	=58	=58	=58
0C	-ia	0cc	-ia	0ee	-ia	0gg	-ia
1C	al-	1cc	al-	1ee	al-	1ee	al-
=59	=59	=59	=59	=59	=59	=59	=59
0G	-le-	0b	-le-	0dd	-le-	0gg	-le-
1A	-lu-	1a	-lu-	1cc	-lu-	1ee	-lu-
=60	=60	=60	=60	=60	=60	=60	=60
0.E	-ia	0.g	-ia	0.b	-ia	0.ee	-ia
=61	=61	=61	=61	=61	=61	=61	=61
1C	al-	1cc	al-	1ee	al-	1gg	al-
1C	-le-	1cc	-le-	1ee	-le-	1gg	-le-
1C	-lu-	1cc	-lu-	1ee	-lu-	1gg	-lu-
=62	=62	=62	=62	=62	=62	=62	=62
0F	-ia	0a	-ia	0cc	-ia	0ff	-ia
1G	al-	1g	al-	1b	al-	1dd	al-
=63	=63	=63	=63	=63	=63	=63	=63
0D	-le-	0f#	-le-	0a	-le-	0dd	-le-
1D	-lu-	1f#	-lu-	1a	-lu-	1dd	-lu-
=64	=64	=64	=64	=64	=64	=64	=64
0.GG	-ia	0.g	-ia	0.g	-ia	0.dd	-ia
=65||	=65||	=65||	=65||	=65||	=65||	=65||	=65||
*met(c|)	*	*met(c|)	*	*met(c|)	*	*met(c|)	*
*M2/2	*	*M2/2	*	*M2/2	*	*M2/2	*
!	!	!	!	!	!	!LO:TX:Y=0:t=Solo	!
1r	.	1r	.	1r	.	1dd	Lau-
=66	=66	=66	=66	=66	=66	=66	=66
1r	.	1r	.	1r	.	2dd\	-de-
.	.	.	.	.	.	2dd\	-tur
=67	=67	=67	=67	=67	=67	=67	=67
1r	.	1r	.	1r	.	2.dd\	San-
.	.	.	.	.	.	4ee\	.
=68	=68	=68	=68	=68	=68	=68	=68
1r	.	1r	.	1r	.	2ff\	.
.	.	.	.	.	.	2ff\	-cta
=69	=69	=69	=69	=69	=69	=69	=69
1r	.	1r	.	1r	.	2.ee\	Tri-
.	.	.	.	.	.	4ee\	-ni-
=70	=70	=70	=70	=70	=70	=70	=70
1r	.	1r	.	1r	.	1dd	-tas
=71||	=71||	=71||	=71||	=71||	=71||	=71||	=71||
*M3/1	*	*M3/1	*	*M3/1	*	*M3/1	*
!	!	!	!	!	!	!LO:TX:Y=0:t=Wszyscy	!
1G	Al-	1b	Al-	1dd	Al-	1gg	Al-
1F#i	-le-	1a	-le-	1dd	-le-	1aa	-le-
1G	-lu-	1b	-lu-	1dd	-lu-	1gg	-lu-
=72	=72	=72	=72	=72	=72	=72	=72
0C	-ia	0cc	-ia	0ee	-ia	0gg	-ia
1C	al-	1cc	al-	1ee	al-	1ee	al-
=73	=73	=73	=73	=73	=73	=73	=73
0G	-le-	0b	-le-	0dd	-le-	0gg	-le-
1A	-lu-	1a	-lu-	1cc	-lu-	1ee	-lu-
=74	=74	=74	=74	=74	=74	=74	=74
0.E	-ia	0.g	-ia	0.b	-ia	0.ee	-ia
=75	=75	=75	=75	=75	=75	=75	=75
1C	al-	1cc	al-	1ee	al-	1gg	al-
1C	-le-	1cc	-le-	1ee	-le-	1gg	-le-
1C	-lu-	1cc	-lu-	1ee	-lu-	1gg	-lu-
=76	=76	=76	=76	=76	=76	=76	=76
0F	-ia	0a	-ia	0cc	-ia	0ff	-ia
1G	al-	1g	al-	1b	al-	1dd	al-
=77	=77	=77	=77	=77	=77	=77	=77
0D	-le-	0f#	-le-	0a	-le-	0dd	-le-
1D	-lu-	1f#	-lu-	1a	-lu-	1dd	-lu-
=78	=78	=78	=78	=78	=78	=78	=78
0.GG	-ia	0.g	-ia	0.g	-ia	0.dd	-ia
=79||	=79||	=79||	=79||	=79||	=79||	=79||	=79||
!	!	!	!	!	!	!LO:TX:Y=0:t=Solo	!
0.r	.	0.r	.	0.r	.	1dd	De-
.	.	.	.	.	.	1dd	-o
.	.	.	.	.	.	1ee	di-
=80	=80	=80	=80	=80	=80	=80	=80
0.r	.	0.r	.	0.r	.	0dd	-ca-
.	.	.	.	.	.	1dd	-mus
=81||	=81||	=81||	=81||	=81||	=81||	=81||	=81||
!	!	!	!	!	!	!LO:TX:Y=0:t=Wszyscy	!
1G	De-	1b	De-	1dd	De-	1gg	De-
1G	-o	1b	-o	1dd	-o	1gg	-o
1C	di-	1cc	di-	1ee	di-	1ee	di-
=82	=82	=82	=82	=82	=82	=82	=82
0G	-ca-	0b	-ca-	0dd	-ca-	0gg	-ca-
1G	-mus	1b	-mus	1dd	-mus	1gg	-mus
=83||	=83||	=83||	=83||	=83||	=83||	=83||	=83||
!	!	!	!	!	!	!LO:TX:Y=0:t=Solo	!
0.r	.	0.r	.	0.r	.	1ee	De-
.	.	.	.	.	.	1ee	-o
.	.	.	.	.	.	1ff	di-
=84	=84	=84	=84	=84	=84	=84	=84
0.r	.	0.r	.	0.r	.	0ee	-ca-
.	.	.	.	.	.	1ee	-mus
=85||	=85||	=85||	=85||	=85||	=85||	=85||	=85||
!	!	!	!	!	!	!LO:TX:Y=0:t=Wszyscy	!
1C	De-	1g	De-	1cc	De-	1ee	De-
1C	-o	1g	-o	1cc	-o	1ee	-o
1FF	di-	1a	di-	1cc	di-	1ff	di-
=86	=86	=86	=86	=86	=86	=86	=86
0C	-ca-	0g	-ca-	0cc	-ca-	0ee	-ca-
1C	-mus	1g	-mus	1cc	-mus	1ee	-mus
=87||	=87||	=87||	=87||	=87||	=87||	=87||	=87||
!	!	!	!	!	!	!LO:TX:Y=0:t=Solo	!
0.r	.	0.r	.	0.r	.	1ee	De-
.	.	.	.	.	.	1ee	-o
.	.	.	.	.	.	1ff	di-
=88	=88	=88	=88	=88	=88	=88	=88
0.r	.	0.r	.	0.r	.	0gg	-ca-
.	.	.	.	.	.	1gg	-mus
=89	=89	=89	=89	=89	=89	=89	=89
0.r	.	0.r	.	0.r	.	0ff	gra-
.	.	.	.	.	.	1ff	-ti-
=90	=90	=90	=90	=90	=90	=90	=90
0.r	.	0.r	.	0.r	.	0ee	-as
.	.	.	.	.	.	1dd	ful-
=91	=91	=91	=91	=91	=91	=91	=91
0.r	.	0.r	.	0.r	.	0ee	-get
.	.	.	.	.	.	1ff#	die-
=92	=92	=92	=92	=92	=92	=92	=92
0.r	.	0.r	.	0.r	.	1gg	-es
.	.	.	.	.	.	0ff#i	i-
=93	=93	=93	=93	=93	=93	=93	=93
0.r	.	0.r	.	0.r	.	0.gg	-sta
=94||	=94||	=94||	=94||	=94||	=94||	=94||	=94||
!	!	!	!	!	!	!LO:TX:Y=0:t=Wszyscy	!
1C	De-	1g	De-	1cc	De-	1ee	De-
1C	-o	1g	-o	1cc	-o	1ee	-o
1AA	di-	1a	di-	1cc	di-	1ff	di-
=95	=95	=95	=95	=95	=95	=95	=95
0GG	-ca-	0b	-ca-	0dd	-ca-	0gg	-ca-
1C	-mus	1cc	-mus	1cc	-mus	1gg	-mus
=96	=96	=96	=96	=96	=96	=96	=96
0D	gra-	0f	gra-	0a	gra-	0ff	gra-
1D	-ti-	1f	-ti-	1b	-ti-	1ff	-ti-
=97	=97	=97	=97	=97	=97	=97	=97
0C	-as	0g	-as	0cc	-as	0ee	-as
1G	ful-	1g	ful-	1b	ful-	1dd	ful-
=98	=98	=98	=98	=98	=98	=98	=98
0C	-get	0g	-get	1.cc	-get	0ee	-get
.	.	.	.	2b\	.	.	.
1D	di-	1dd	di-	1a	di-	1ff#	di-
=99	=99	=99	=99	=99	=99	=99	=99
1E	-es	1cc	-es	1cc	-es	1gg	-es
0D	i-	0a	i-	0dd	i-	0ff#i	i-
=100	=100	=100	=100	=100	=100	=100	=100
0.GG	-sta	0.b	-sta	0.dd	-sta	0.gg	-sta
=101||	=101||	=101||	=101||	=101||	=101||	=101||	=101||
!	!	!	!	!	!	!LO:TX:Y=0:t=Solo	!
0.r	.	0.r	.	0.r	.	1dd	ful-
.	.	.	.	.	.	0ee	-get
=102	=102	=102	=102	=102	=102	=102	=102
0.r	.	0.r	.	0.r	.	1ff#	di-
.	.	.	.	.	.	1gg	-es
.	.	.	.	.	.	[1ff#	i-
=103	=103	=103	=103	=103	=103	=103	=103
0.r	.	0.r	.	0.r	.	1ff#]	.
.	.	.	.	.	.	0gg	-sta
=104||	=104||	=104||	=104||	=104||	=104||	=104||	=104||
!	!	!	!	!	!	!LO:TX:Y=0:t=[Wszyscy]	!
1G	ful-	1g	ful-	1b	ful-	1dd	ful-
0E	-get	0g	-get	1.b	-get-	0ee	-get
.	.	.	.	2cc\	.	.	.
=105	=105	=105	=105	=105	=105	=105	=105
1D	di-	1a	di-	1dd	-di-	1ff#	di-
1BB	-es	1b	-es	1dd	-es	1gg	-es
1C	i-	[1a	i-	[1dd	i-	[1ff#	i-
=106	=106	=106	=106	=106	=106	=106	=106
1D	.	1a]	.	1dd]	.	1ff#]	.
0GG	-sta	0b	-sta	0dd	-sta	0gg	-sta
=107||	=107||	=107||	=107||	=107||	=107||	=107||	=107||
!	!	!	!	!	!	!LO:TX:Y=0:t=Solo	!
0.r	.	0.r	.	0.r	.	1dd	ful-
.	.	.	.	.	.	0ee	-get
=108	=108	=108	=108	=108	=108	=108	=108
0.r	.	0.r	.	0.r	.	1ff#i	di-
.	.	.	.	.	.	1gg	-es
.	.	.	.	.	.	[1ff#	i-
=109	=109	=109	=109	=109	=109	=109	=109
0.r	.	0.r	.	0.r	.	1ff#]	.
.	.	.	.	.	.	0gg	-sta
=110||	=110||	=110||	=110||	=110||	=110||	=110||	=110||
!	!	!	!	!	!	!LO:TX:Y=0:t=[Wszyscy]	!
1r	.	1r	.	1r	.	1r	.
1r	.	1r	.	1r	.	1r	.
1GG	ful-	1g	ful-	1b	ful-	1dd	ful-
=111	=111	=111	=111	=111	=111	=111	=111
1.C	-get	0g	-get	0cc	-get	0ee	-get
2BB/	.	.	.	.	.	.	.
1AA	di-	1a	di-	1cc	di-	1ff#i	di-
=112	=112	=112	=112	=112	=112	=112	=112
1GG	-es	1b	-es	1dd	-es	1gg	-es
0D	i-	0a	i-	0dd	i-	0ff#	i-
=113	=113	=113	=113	=113	=113	=113	=113
0.GG	-sta.	0.b	-sta.	0.dd	-sta.	0.gg	-sta.
==	==	==	==	==	==	==	==
*-	*-	*-	*-	*-	*-	*-	*-
!!!GTL: Hymnbook L 1642(a)
!!!EFL: 28/34
!!!YEM: Creative Commons CC/BY/NC/SA 4.0
!!!ENC: Marcin Konik
!!!END: 2015-01-19 
!!!EED: Marcin Konik
!!!EEV: 
!!!ONB: Translated from MusicXML and edited by Marcin Konik
!!!CharacterEncoding: utf-8
!!!RDF**kern: i=editorial accidental
!!muse2ps: z14jc180F
!!title: @{OTL}, @{GTL}: @{pag}, ed. @{ENC}
